X: 4
T: Piano Sonata No. 2 in F major, K 280 (189e), mvmt. 1
C: Wolfgang Amadeus Mozart
%%abc-version 2.0
%%abcx-abcm2ps-target-version 5.9.1 (29 Sep 2008)
%%abc-creator hum2abc beta
%%abcx-conversion-date 2021/01/14 17:01:31
%%abc-copyright 2018 Craig Stuart Sapp
%%abc-edited-by Craig Stuart Sapp
%%abc-edited-by Craig Stuart Sapp
%%abcx-initial-encoding-date 2009/09/24
%%gracespace 0 6 6
%%humdrum-veritas 1390848080
%%humdrum-veritas-data 2176241645
%%linebreak <none>
%%barnumbers 0
L: 1/16
M: 3/4
N: Derived from sonata02-1.krn
Q: "Allegro assai." 1/4=152
%%staves {1 2}
V: 1 clef=treble
V: 2 clef=bass
K: F
[V:1] !arpeggio![C4F4A4c4][A4c4][A4c4] | 
[V:2] [F,,4F,4]C,4A,,4 | 
[V:1] [A6c6]dc BAGF | 
[V:2] F,,4F,,,4z4 | 
[V:1] f4e4_e4 | 
[V:2] [F,2A,2][F,2A,2][F,2G,2B,2][F,2G,2B,2][F,2A,2C2][F,2A,2C2] | 
[V:1] d4z4z4 | 
[V:2] [F,2B,2D2][F,2B,2D2][F,2B,2D2][F,2B,2D2][F,2B,2D2][F,2B,2D2] | 
[V:1] c2B2.B4z4 | 
[V:2] [F,2G,2E2][F,2G,2E2][F,2G,2E2][F,2G,2E2][F,2G,2E2][F,2G,2E2] | 
[V:1] d2c2.c4z4 | 
[V:2] [F,2A,2F2][F,2A,2F2][F,2A,2F2][F,2A,2F2][F,2A,2F2][F,2A,2F2] | 
[V:1] baga gfef edcB | 
[V:2] !arpeggio![E,4G,4C4]z4z4 | 
[V:1] A2f4e4f2 | 
[V:2] F,CA,C G,CB,C A,CA,C | 
[V:1] z2 [F2d2] z2 [B,2G2] z2 [G,2E2] | 
[V:2] B,2 z2 B,,2 z2 C,2 z2 | 
[V:1] baga gfef edcB | 
[V:2] !arpeggio![E,4G,4C4]z4z4 | 
[V:1] A2a4g4f2 | 
[V:2] F,CA,C G,EB,E A,FCF | 
[V:1] z2 [F2d2] z2 [B,2G2] z2 [G,2E2] | 
[V:2] B,2 z2 B,,2 z2 C,2 z2 | 
[V:1] (3A,2F2C2 (3A2F2C2 (3B,2G2E2 | 
[V:2] [F,,4F,4]z4[C,,4C,4] | 
[V:1] (3F2A,2C2 (3G2C2E2 (3A2C2F2 | 
[V:2] [F,,,4F,,4]z4z4 | 
[V:1] (3C2G2E2 (3B2G2E2 (3C2A2F2 | 
[V:2] [C,,4C,4]z4[F,,4F,4] | 
[V:1] (3G2C2E2 (3A2C2F2 (3B2C2G2 | 
[V:2] [C,4C4]z4z4 | 
[V:1] (3A2c2f2 (3a2f2d2 (3c2f2a2 | 
[V:2] [F,,4F,4]z4z4 | 
[V:1] (3_a2d2=B2 (3c2e2g2 (3_e2c2_B2 | 
[V:2] [F,4F4][E,4E4]z4 | 
[V:1] (3A2c2_g2 (3f2d2B2 (3A2d2f2 | 
[V:2] [_E,4_E4][D,4D4]z4 | 
[V:1] (3f2=B2^G2 (3A2^c2=e2 (3=c2A2=G2 | 
[V:2] [D,4D4][^C,4^C4]z4 | 
[V:1] (3^F2A2_e2 (3d2=B2G2 (3=F2_B2d2 | 
[V:2] [=C,4=C4][=B,,4=B,4]z4 | 
[V:1] (3_d2G2=E2 (3F2A2c2 (3f2c2A2 | 
[V:2] [_B,,4_B,4][A,,4A,4]z4 | 
[V:1] (3G2B2A2 (3B2=d2^c2 (3d2g2^f2 | 
[V:2] [B,,4B,4]z4z4 | 
[V:1] (3g2b2a2 (3b2d'2^c'2 (3d'2b2a2 | 
[V:2] z12 | 
[V:1] (3b2g2^f2 (3g2d2^c2 (3d2B2G2 | 
[V:2] z4z4[B,,4B,4] | 
[V:1] =F4E4z4 | 
[V:2] A,4G,4x4 & C,8z4 | 
[V:1] z12 | 
[V:2] [C,,4C,4][E,,4E,4][G,,4G,4] | 
[V:1] gage gage fgfd | 
[V:2] z12[K:clef=treble] | 
[V:1] efec efec ded=B | 
[V:2] GAGE GAGE FGFD | 
[V:1] c6ded4 | 
[V:2] E2G,2C2G,2=B,4[K:clef=bass] | 
[V:1] z12 | 
[V:2] [G,,,4G,,4][=B,,,4=B,,4][D,,4D,4] | 
[V:1] fgfd fgfd efec | 
[V:2] z12[K:clef=treble] | 
[V:1] ded=B dedB cBce | 
[V:2] FGFD FGFD EFEC | 
[V:1] d6efe4 | 
[V:2] F2D2=B,2G,2C4[K:clef=bass] | 
[V:1] (3z2 .g2.f2 (3.e2.g2d2 (3c2.g2._B2 | 
[V:2] [E,,4E,4]z4z4 | 
[V:1] (3z2 B2^G2 (3A2d2^c2 (3e2d2f2 | 
[V:2] [F,,4F,4]z4z4 | 
[V:1] (3z2 a2.=g2 (3.^f2.a2.e2 (3.d2.a2=c2 | 
[V:2] [^F,,4^F,4]z4z4 | 
[V:1] (3z2 c2^A2 (3=B2e2^d2 (3^f2e2g2 | 
[V:2] [G,,4G,4]z4z4 | 
[V:1] (3z2 .=b2.=a2 (3.^g2.b2.=f2 (3.e2.b2.=d2 | 
[V:2] [^G,,4^G,4]z4z4 | 
[V:1] (3z2 =B2c2.f4.e4 | 
[V:2] [A,,4A,4][K:clef=treble](3z2 ^G2A2 (3z2 ^F2=G2 | 
[V:1] (3z2 ^c2d2.a4.g4 | 
[V:2] =F4(3z2 E2F2 (3z2 ^D2E2[K:clef=bass] | 
[V:1] gfed=c4!trill!=B3A/B/ | 
[V:2] =D4E4F4 & F,4G,8 | 
[V:1] c4z =Bcd fedc | 
[V:2] C,E,G,C E2 z2z4 | 
[V:1] =B4z ^cde gfed | 
[V:2] D,F,=B,D F2 z2z4 | 
[V:1] =c4z ^def agfe | 
[V:2] E,G,CE G2 z2z4[K:clef=treble] | 
[V:1] ^c=dfe cdfe gfed | 
[V:2] [F4A4][F4A4][F4A4] | 
[V:1] afed {/c/d/e/}!trill!d8{/c/d/} | 
[V:2] [F4A4c4]c4=B4[K:clef=bass] & x4G8 | 
[V:1] !arpeggio![E4G4c4]z2 (3=B,CD FEDC | 
[V:2] C,,E,,G,,C, E,2 z2z4 | 
[V:1] =B,4z ^CDE GFED | 
[V:2] D,,F,,=B,,D, F,2 z2z4 | 
[V:1] =C4z ^DEF AGFE | 
[V:2] E,,G,,C,E, G,2 z2z4 | 
[V:1] =D4z DFA d2 z2 | 
[V:2] F,,A,,D,F, A,2 z2 z F,A,D | 
[V:1] z Adf a2 z2 z =bc'^g | 
[V:2] F2 z2[K:clef=treble] z FAd f2 z2 | 
[V:1] aefd {/c/d/e/}!trill!d8{/c/d/} | 
[V:2] x4[K:clef=bass]C4=B,4[K:clef=treble] & z4G,8 | 
[V:1] .c2.e2g4!trill!=b3a/b/ | 
[V:2] CGEG CGEG G,FDF | 
[V:1] .c'2.e2g4!trill!=b3a/b/ | 
[V:2] CGEG CGEG G,FDF | 
[V:1] c'4[E4G4c4]z4 :|]|:  
[V:2] [C4E4][K:clef=bass][C,4E,4G,4]z4 :|]|:  
[V:1] [e4g4]z4z4 | 
[V:2] (3z2 C,2=B,,2 (3C,2E,2^D,2 (3E,2G,2^F,2 | 
[V:1] z4[e2g2]>[^c2e2][e3g3][ce] | 
[V:2] G,4z4z4 | 
[V:1] [d4f4]z4z4 | 
[V:2] (3z2 G,2^F,2 (3G,2=B,2^A,2 (3B,2D2^C2 | 
[V:1] z4[F2d2]>[D2=B2][F3d3][DB] | 
[V:2] D4z4z4 | 
[V:1] {/E/G/}c12- | 
[V:2] z4C2>G,2A,3E, | 
[V:1] c4d2>A2=B3G | 
[V:2] F,12 | 
[V:1] g12- & z4c2>d2=B3c | 
[V:2] E,4[K:clef=treble][E4G4][D4F4] | 
[V:1] g4-g2>e2g3e & _B4A4z4 | 
[V:2] [^C8E8]z4 | 
[V:1] g12- & z4c2>d2=B3c | 
[V:2] z4[E4G4][D4F4] | 
[V:1] g8x4 & _B4A4z4 | 
[V:2] [^C8E8]z4[K:clef=bass] | 
[V:1] z12 | 
[V:2] [D,,4D,4][F,,4F,4][A,,4A,4] | 
[V:1] abaf gage fgfd | 
[V:2] z12 | 
[V:1] !arpeggio![B4d4g4b4]z4z4 | 
[V:2] [G,,,4G,,4][B,,,4B,,4][D,,4D,4] | 
[V:1] d_edB cdcA BcBG | 
[V:2] z12 | 
[V:1] !arpeggio![=E4G4c4=e4]z4z4 | 
[V:2] [C,,4C,4][E,,4E,4][G,,4G,4] | 
[V:1] gage fgfd efec | 
[V:2] z12 | 
[V:1] !arpeggio![A4c4f4a4]z4z4 | 
[V:2] [F,,,4F,,4][A,,,4A,,4][C,,4C,4] | 
[V:1] cdcA BcBG ABAF | 
[V:2] z12 | 
[V:1] !arpeggio![d4f4^g4d'4]E4F4 | 
[V:2] [B,,4B,4]^C4D4 | 
[V:1] !arpeggio![d4f4a4d'4]E4F4 | 
[V:2] [A,,4A,4]^C4D4 | 
[V:1] !arpeggio![d4f4=b4d'4]E4F4 | 
[V:2] [^G,,4^G,4]^C4D4 | 
[V:1] (3^C2A2E2 (3D2_B2F2 (3D2^G2F2 | 
[V:2] [A,,12A,12]- | 
[V:1] (3^C2A2E2 (3D2B2F2 (3D2^G2F2 | 
[V:2] [A,,12A,12] | 
[V:1] z4B2A2.A4 | 
[V:2] [A,4^C4E4]z4z4 | 
[V:1] z4c2=B2.B4 | 
[V:2] [^G,4D4F4]z4z4 | 
[V:1] z4c2_B2.B4 | 
[V:2] [=G,4=C4E4]z4z4 | 
[V:1] !arpeggio![C4F4A4c4][A4c4][A4c4] | 
[V:2] [F,,4F,4]C,4A,,4 | 
[V:1] [A6c6]dc BAGF | 
[V:2] F,,4F,,,4z4 | 
[V:1] f4e4_e4 | 
[V:2] [F,2A,2][F,2A,2][F,2G,2B,2][F,2G,2B,2][F,2A,2C2][F,2A,2C2] | 
[V:1] d4z4z4 | 
[V:2] [F,2B,2D2][F,2B,2D2][F,2B,2D2][F,2B,2D2][F,2B,2D2][F,2B,2D2] | 
[V:1] c2B2.B4z4 | 
[V:2] [F,2G,2E2][F,2G,2E2][F,2G,2E2][F,2G,2E2][F,2G,2E2][F,2G,2E2] | 
[V:1] d2c2.c4z4 | 
[V:2] [F,2A,2F2][F,2A,2F2][F,2A,2F2][F,2A,2F2][F,2A,2F2][F,2A,2F2] | 
[V:1] baga gfef edcB | 
[V:2] !arpeggio![E,4G,4C4]z4z4 | 
[V:1] A2f4e4f2 | 
[V:2] F,CA,C G,CB,C A,CA,C | 
[V:1] z2 [F2d2] z2 [B,2G2] z2 [G,2E2] | 
[V:2] B,2 z2 B,,2 z2 C,2 z2 | 
[V:1] baga gfef edcB | 
[V:2] !arpeggio![E,4G,4C4]z4z4 | 
[V:1] A2a4g4f2 | 
[V:2] F,CA,C G,EB,E A,FCF | 
[V:1] z2 [F2d2] z2 [B,2G2] z2 [G,2E2] | 
[V:2] B,2 z2 B,,2 z2 C,2 z2 | 
[V:1] (3A,2F2C2 (3A2F2C2 (3B,2G2E2 | 
[V:2] [F,,4F,4]z4[C,,4C,4] | 
[V:1] (3F2A,2C2 (3G2C2E2 (3A2C2F2 | 
[V:2] [F,,,4F,,4]z4z4 | 
[V:1] (3C2G2E2 (3B2G2E2 (3C2A2F2 | 
[V:2] [C,,4C,4]z4[F,,4F,4] | 
[V:1] (3G2C2E2 (3A2C2F2 (3B2C2G2 | 
[V:2] [C,4C4]z4z4 | 
[V:1] (3A2c2f2 (3a2f2d2 (3c2f2a2 | 
[V:2] [F,,4F,4]z4z4 | 
[V:1] (3_a2d2=B2 (3c2e2g2 (3e2c2G2 | 
[V:2] [F,4F4][E,4E4]z4 | 
[V:1] ^c'4d'4z4 & (3_B2A2G2 (3^F2A2d2 (3A2d2^f2 | 
[V:2] x12 | 
[V:1] (3=f2=B2^G2 (3A2c2e2 (3c2A2E2 | 
[V:2] [D,4D4][=C,4=C4]z4 | 
[V:1] a4_b4z4 & (3_G2F2_E2 (3D2F2_B2 (3F2B2d2 | 
[V:2] x12 | 
[V:1] (3_d2=G2=E2 (3F2A2c2 (3f2c2A2 | 
[V:2] [B,,4B,4][A,,4A,4]z4 | 
[V:1] (3G2B2A2 (3B2=d2^c2 (3d2g2^f2 | 
[V:2] [B,,4B,4]z4z4 | 
[V:1] (3g2b2a2 (3b2d'2^c'2 (3d'2b2a2 | 
[V:2] z12 | 
[V:1] (3b2g2^f2 (3g2d2^c2 (3d2B2G2 | 
[V:2] z4z4[B,,4B,4] | 
[V:1] =F4E4z4 | 
[V:2] A,4G,4z4 & C,8x4 | 
[V:1] z12 | 
[V:2] [F,,,4F,,4][A,,,4A,,4][C,,4C,4] | 
[V:1] c'd'c'a c'd'c'a bc'bg | 
[V:2] z12[K:clef=treble] | 
[V:1] abaf abaf gage | 
[V:2] cdcA cdcA BcBG | 
[V:1] f6gag4 | 
[V:2] A2C2F2C2E4[K:clef=bass] | 
[V:1] z12 | 
[V:2] [C,,4C,4][E,,4E,4][G,,4G,4] | 
[V:1] bc'bg bc'bg abaf | 
[V:2] z12[K:clef=treble] | 
[V:1] gage gage fefa | 
[V:2] BcBG BcBG ABAF | 
[V:1] g6aba4 | 
[V:2] B2G2E2C2F4[K:clef=bass] | 
[V:1] z c'bc' abga fgef | 
[V:2] [F,,4F,4][A,,4A,4][C,4C4] | 
[V:1] [D4d4][F4f4][B4b4] | 
[V:2] z D,C,D, B,,C,A,,B,, G,,A,,F,,G,, | 
[V:1] z bab gafg efde | 
[V:2] [E,,4E,4][G,,4G,4][B,,4B,4] | 
[V:1] [C4c4][E4e4][A4a4] | 
[V:2] z C,B,,C, A,,B,,G,,A,, F,,G,,E,,F,, | 
[V:1] z aga fgef decd | 
[V:2] [D,,4D,4]z ECD B,CA,B, | 
[V:1] BcAB GAFG EFDE | 
[V:2] G,A,F,G, E,F,D,E, C,D,B,,C, | 
[V:1] (3.C2.c2.B2 (3.A2.c2.G2 (3.F2.c2._E2 | 
[V:2] [A,,,4A,,4]z4z4 | 
[V:1] (3z2 _E2^C2 (3D2G2^F2 (3A2G2B2 | 
[V:2] [B,,,4B,,4]z4z4 | 
[V:1] (3z2 .d2.=c2 (3.=B2.d2.A2 (3.G2.d2.=F2 | 
[V:2] [=B,,,4=B,,4]z4z4 | 
[V:1] (3z2 F2^D2 (3E2A2^G2 (3=B2A2c2 | 
[V:2] [C,,4C,4]z4z4 | 
[V:1] (3z2 .e2.=d2 (3.^c2.e2._B2 (3.A2.e2.=G2 | 
[V:2] [^C,,4^C,4]z4z4 | 
[V:1] (3z2 E2F2.B4.A4 | 
[V:2] [D,,4D,4](3z2 ^C2D2 (3z2 =B,2=C2 | 
[V:1] (3z2 ^F2G2.d4.c4 | 
[V:2] _B,4(3z2 A,2B,2 (3z2 ^G,2A,2 | 
[V:1] cBAG=F4!trill!E3D/E/ | 
[V:2] =G,4A,4B,4 & B,,4C,8 | 
[V:1] F4z efg bagf | 
[V:2] F,A,CF A2 z2z4[K:clef=treble] | 
[V:1] e4z ^fga c'bag | 
[V:2] G,B,EG B2 z2z4 | 
[V:1] =f4z ^gab d'c'ba | 
[V:2] A,CFA c2 z2z4 | 
[V:1] ^f=gba fgba c'bag | 
[V:2] [B4d4][B4d4][B4d4] | 
[V:1] d'bag {/f/g/a/}!trill!g8{/f/g/} | 
[V:2] x4f4e4[K:clef=bass] & [B4d4f4]c8 | 
[V:1] !arpeggio![A4c4f4]z EFG BAGF | 
[V:2] F,,A,,C,F, A,2 z2z4 | 
[V:1] E4z ^FGA cBAG | 
[V:2] G,,B,,E,G, B,2 z2z4 | 
[V:1] =F4z ^GAB dcBA | 
[V:2] A,,C,F,A, C2 z2z4 | 
[V:1] =G4z G,B,D G2 z2 | 
[V:2] B,,D,G,B, D2 z2 z B,,D,G, | 
[V:1] z DGB d2 z2 z ef^c | 
[V:2] B,2 z2[K:clef=treble] z B,DG B2 z2 | 
[V:1] dABG {/F/G/A/}!trill!G8{/F/G/} | 
[V:2] z4[K:clef=bass]F,4E,4 & x4C,8 | 
[V:1] .F2.A2c4!trill!e3d/e/ | 
[V:2] F,CA,C F,CA,C C,B,G,B, | 
[V:1] .f2.A2c4!trill!e3d/e/ | 
[V:2] F,CA,C F,CA,C C,B,G,B, | 
[V:1] f4[A,4C4F4]z4 :|]  
[V:2] [F,4A,4][F,,4F,4]z4 :|]  


